tipitek/img/icon-facebook.svg

<svg width="10" height="20" viewBox="0 0 10 20" fill="none" xmlns="http://www.w3.org/2000/svg">
<path d="M2.71621 19.5999V10.5907H0.333984V7.34696H2.71621V4.57638C2.71621 2.39924 4.12339 0.399902 7.36585 0.399902C8.67867 0.399902 9.64944 0.525758 9.64944 0.525758L9.57295 3.55487C9.57295 3.55487 8.58292 3.54523 7.50255 3.54523C6.33327 3.54523 6.14594 4.08408 6.14594 4.97843V7.34696H9.66589L9.51274 10.5907H6.14594V19.5999H2.71621Z" fill="black"/></svg>

<svg width="10" height="20" fill="none" xmlns="http://www.w3.org/2000/svg"><path d="M2.716 19.6v-9.01H.334V7.348h2.382v-2.77C2.716 2.398 4.123.4 7.366.4c1.313 0 2.283.126 2.283.126l-.076 3.029s-.99-.01-2.07-.01c-1.17 0-1.357.54-1.357 1.433v2.369h3.52l-.153 3.244H6.146V19.6h-3.43z" fill="#000"/></svg>
